X:1
T:Truth
T:Truth (Piano Solo) Game Of Thrones OST Season 7 Episode 7 
T: Composed by Ramin Djawadi Piano arrangement by Nicolas Del Gallo Full playthrough and more at https://www.youtube.com/c/NDGmusic If you want to donate, please check out my Patreon ☺ https://www.patreon.com/ndg 
%%score { ( 1 3 5 ) | ( 2 4 ) }
L:1/8
Q:1/4=50
M:4/4
K:F
V:1 treble nm="Piano" snm="Pno."
V:3 treble 
V:5 treble 
V:2 bass 
V:4 bass 
V:1
!p! [dd']2 [dd']2 [dd']2 [dd']2 | [dd']2 [dd']2 [dd']2 [dd']2 | [dd']2 [dd']2 [dd']2 [dd']2 | %3
 [dd']2 [dd']2 [dd']2 [dd']2 | [dd']2 [dd']2 [dd']2 [dd']2 | [dd']2 [dd']2 [dd']2 [dd']2 | %6
 [dd']2 [dd']2 [cc'd']2 [cc'd']2 | [cc'd']2 [cc'd']2"_rit." [cc'd']2 [cc'd']2 | %8
"_a tempo""^(opt. arppeggio)" [DBdf]4 [Eceg]4 | [Fdf]8 | [Gdb]4 [Fca]4 | [Edg]8 | %12
!mp! !arpeggio![Fdfa]4 !arpeggio![Ecea]4 |[M:6/4] !arpeggio!!fermata![cdfgd']8 z A,DA, | %14
[M:4/4] [F,DFA]4 [G,DEG]4 | [A,FA]4 z A,DA, | [DGB]4 [EA^c]4 | [FAd]4 z A,DE | %18
 [F,B,DF]4 [E,A,CE]4 | [E,A,CE]4 [D,F,B,D]4- |!>(! [D,F,B,D]2 [D,D]2 [C,C]4 | %21
 [D,B,D]4 [D,A,D]4-!>)! | [D,A,D]8- | !fermata![D,A,D]8 ||!p! [dd']2 [dd']2 [dd']2 [dd']2 | %25
[M:6/4] [dd']2 [dd']2 [dd']2"_rit." [dd']2 [dd']!mp!AdA |[M:4/4]"_a tempo" F4 [FG]4 | [FA]8 | %28
"_più animato""_cresc." [G,C]2 A,2 [F,B,D]4 | [G,CE]4 z AdA | [Fd]4 [Ge]4 | [Gce]AGE [Fdf]4 | %32
 [Geg]4 [Aea]4- |!<(! [Aea]4!<)!"^No sustain during rest" z!f! [Aa][dd'][Aa] | %34
 [FAdf]2 [A,D]2 [Gg]4 | [Adfa]8 | [dfad']4 [egae']4 |[M:3/4] [faf']6 |[M:4/4] [dfd']4 [cegc']4 | %39
 [cec']4 [Ada]4 |!mp! [A,D-A]2 [B,DB]2 [F,C-F]2 [E,CE]2 | !fermata![D,F,D]8 |] %42
V:2
!ped! [D,D]8 | z8 | z8 | [D,D]8 | z D,D[I:staff -1]A[I:staff +1] x4 | z8 | %6
 D,,D,[I:staff -1]A,D A4 |[I:staff +1] D,,4 [D,D]4!ped-up! | B,,,B,,F,B, C,,C,G,C | D,,F,A,D E4 | %10
 B,,,B,,F,B, C,,C,G,C | D,,A,DE- E4 | B,,,B,,F,B, C,,C,G,C | %13
[M:6/4] [D,,,D,,]D,A,D- !fermata!D4 z4 |[M:4/4] [D,,D,]4 [E,,E,]4 | [F,,F,]8 | %16
 [B,,,B,,]4 [A,,,A,,]4 | [F,,,F,,]8 | [B,,,B,,]4 [C,,C,]4 | [A,,,A,,]4 [B,,,B,,]4 | [E,,,E,,]8 | %21
 [D,,,D,,]8- | [D,,,D,,]8- | [D,,,D,,]8 || z8 |[M:6/4] z8 z2 D,2 |[M:4/4] A,,F,A,C B,,F,B,C | %27
 C,G,, C,,2 [D,,A,,E,]4 | !arpeggio![C,,G,,E,]4 (3[B,,,B,,]2 [C,,C,]2 [D,,D,]2 | [C,,C,]8 | %30
 [B,,,B,,]C,D,F, [C,,C,]D,E,G, | [C,A,]2 C,,2 [D,,D,]F,G,B, |!ped! [C,,C,]4 [C,C]4- | %33
 [C,C]4!ped-up! z A,DA, | !>![D,,,D,,]2 !arpeggio![A,,F,]2 !>![E,,,E,,]2 !arpeggio![G,,E,G,]2 | %35
 [F,,,F,,]8 | [B,,,B,,]4 [A,,,A,,]2 [G,,,G,,]2 |[M:3/4] [F,,,F,,]6 |[M:4/4] [B,,,B,,]4 [C,,C,]4 | %39
 !arpeggio![C,,G,,G,]4 [F,,,F,,]4 | [D,,,D,,]4 [C,,,C,,]4 | [D,,,D,,]8 |] %42
V:3
 x8 | x8 | c8 | z8 | x4 c2 c2 | c2 c2 c2 c2 | x8 | x8 | x8 | x8 | x8 | x8 | x8 |[M:6/4] x12 | %14
[M:4/4] x8 | x8 | x8 | x8 | x8 | x8 | x8 | x8 | c8 | x8 || x8 | %25
[M:6/4] [Ee]2 [Ee]2 [Ee]2 [Ee]2 [Ee]2 x2 |[M:4/4] x8 | x4 [A,CG]AEC | x8 | x2 [Cc]6 | x8 | x8 | %32
 x8 | !///-!A,2 A2 x4 | x4 B[Cc] [Dd]2 | z2 !arpeggio![A,DF]2 z [Aa][dd'][Aa] | x8 | %37
[M:3/4] z2 z [Ff] [Aa][Ff] |[M:4/4] z DEG z cGC | z!>(! EGA x4!>)! | x8 | x8 |] %42
V:4
 x8 | x8 | x8 | x8 | x8 | x8 | x8 | x8 | x8 | x8 | x8 | x8 | x8 |[M:6/4] x12 |[M:4/4] x8 | x8 | %16
 x8 | x8 | x8 | x8 | x8 | x8 | z4 E,4 | D,8 || x8 |[M:6/4] x12 |[M:4/4] x8 | x8 | x8 | z2 C,,,6 | %30
 x8 | x8 | x8 | !///-!C,,2 C,2 x4 | x8 | z2 !arpeggio![F,,D,F,]2 z A,DA, | %36
 z A,G,F, z"^r.h." G,F,E, |[M:3/4] z2 [D,F,]4 |[M:4/4] x8 | x8 | x8 | x8 |] %42
V:5
 x8 | x8 | x8 | x8 | x8 | x8 | x8 | x8 | x8 | x8 | x8 | x8 | x8 |[M:6/4] x12 |[M:4/4] x8 | x8 | %16
 x8 | x8 | x8 | x8 | x8 | x8 | x8 | x8 || x8 |[M:6/4] x12 |[M:4/4] x8 | x8 | x8 | x8 | x8 | x8 | %32
 x8 | x8 | x8 | x8 | x8 |[M:3/4] x2 [DF]4 |[M:4/4] z8 | x8 | x8 | x8 |] %42

